X:1
T:ST. MARTINS
T:ST. MARTINS
T:William Tans'ur
C:William Tans'ur
%%score [ 1 2 3 4 ]
L:1/8
Q:1/4=108
M:3/2
K:G
V:1 treble nm="Soprano Tenor 2"
V:2 treble nm="Alto"
V:3 treble-8 nm="Tenor Soprano 2"
V:4 bass nm="Bass"
V:1
!f!"^Heavily accented; very bright tone""^(Ten. 2 -  own octave)" B4 | (c4 B4) A4 | B8 (G3 A) | %3
w: Re-|joice, _ re-|joice! The- *|
 (B3 A G4) B4 | !breath!A8 G4 | (A4 G4) G4 | (c4 B4) A4 | !breath!B8 (G3 A) | B8 c4 | %9
w: Sa- * * viour|comes, The|Sa- * viour|pro- * mised|long: Let _|ev'- ry|
 (B3 c d4) d4 | (G4 A4) (B3 c) | !breath!d8 B4 | (c3 B A4) G4 | (c4 B4) A4 | !fermata!B8 ||!f! B4 | %16
w: heart _ _ pre-|pare _ a _|throne, And|ev- * * 'ry|voice _ a|song.|He|
 (c4 B4) A4 | B8 (G3 A) | (B3 A G4) B4 | !breath!A8 G4 | (A4 G4) G4 | (c4 B4) A4 | %22
w: comes _ the|pris- 'ners _|to _ _ re-|lease, in|sa- * tan's|bon- * dage|
 !breath!B8 (G3 A) | B8 c4 | (B3 c d4) d4 | (G4 A4) (B3 c) | !breath!d8 B4 | (c3 B A4) G4 | %28
w: held; The _|gates of|brass _ _ be-|fore _ Him _|burst, The|i- * * ron|
 (c4 B4) A4 | !fermata!B8 ||!p![Q:1/4=108]"^Gently" B4 | (c4 B4) A4 | B8 (G3 A) | (B3 A G4) B4 | %34
w: fet- * ters|yield.|He|comes _ the|bro- ken- *|heart _ _ to|
 !breath!A8 G4 | (A4 G4) G4 | (c4 B4) A4 | !breath!B8 (G3 A) | B8 c4 | (B3 c d4) d4 | %40
w: bind, The|bleed- * ing|soul _ to|cure, And _|with the|trea- * * sures|
 (G4 A4) (B3 c) | (d8 B4) | (c3 B A4) G4 | (c4 B4) A4 | !fermata!B8 || %45
w: of _ His _|grace To|bless _ _ the|hum- * ble|poor.|
!f![Q:1/4=108]"^Triumphantly" !plus!B4 | (c4 B4) A4 | B8 (G3 A) | (B3 A G4) B4 | (A8 G4) | %50
w: Our|glad _ ho-|san- nas, _|Prince _ _ of|Peace, Thy|
 (A4 G4) G4 | (c4 B4) A4 | !breath!B8 (G3 A) | B8 c4 | (B3 c d4) d4 | (G4 A4) (B3 c) | %56
w: well- * come|shall _ pro-|claim; And _|heav'n's e-|ter- * * nal|arch- * es _|
!<(! (d8!<)! B4) | (c3 B A4) G4 | (c4 B4) A4 | !fermata!B8 |] %60
w: ring With|Thy _ _ be-|lov- * ed|name.|
V:2
!f! D4 | E8 D4 | D8 D4 | D8 G4 | !breath!F8 D4 | D8 D4 | (E4 D4) D4 | !breath!D8 G4 | G8 G4 | %9
w: Re-|joice, re-|joice! The-|Sa- viour|comes, The|Sa- viour|pro- * mised|long: Let|ev'- ry|
 G8 G4 | (G3 D E2 F2) G4 | !breath!F8 D4 | G8 D4 | (E4 D4) D4 | !fermata!D8 ||!f! D4 | E8 D4 | %17
w: heart pre-|pare _ _ _ a|throne, And|ev- 'ry|voice _ a|song.|He|comes the|
 D8 D4 | D8 G4 | !breath!F8 D4 | D8 D4 | (E4 D4) D4 | !breath!D8 G4 | G8 G4 | G8 G4 | %25
w: pris- 'ners|to re-|lease, in|sa- tan's|bon- * dage|held; The|gates of|brass be-|
 (G3 D E2 F2) G4 | !breath!F8 D4 | G8 D4 | (E4 D4) D4 | !fermata!D8 ||!p! D4 | E8 D4 | D8 D4 | %33
w: fore _ _ _ Him|burst, The|i- ron|fet- * ters|yield.|He|comes the|bro- ken-|
 D8 G4 | !breath!F8 D4 | D8 D4 | (E4 D4) D4 | !breath!D8 G4 | G8 G4 | G8 G4 | (G3 D E2 F2) G4 | %41
w: heart to|bind, The|bleed- ing|soul _ to|cure, And|with the|trea- sures|of _ _ _ His|
 (F8 D4) | G8 D4 | (E4 D4) D4 | !fermata!D8 ||!f! !plus!D4 | E8 D4 | D8 D4 | D8 G4 | (F8 D4) | %50
w: grace To|bless the|hum- * ble|poor.|Our|glad ho-|san- nas,|Prince of|Peace, Thy|
 D8 D4 | (E4 D4) D4 | !breath!D8 G4 | G8 G4 | G8 G4 | (G3 D E2 F2) G4 |!<(! (F8!<)! D4) | G8 D4 | %58
w: well- come|shall _ pro-|claim; And|heav'n's e-|ter- nal|arch- * * * es|ring With|Thy be-|
 (E4 D4) D4 | !fermata!D8 |] %60
w: lov- * ed|name.|
V:3
!f!"^(Sop. 2 -  own octave)" G4 | (G3 A G4) D4 | (G3 A B4) (B3 c) | (d3 c) B4 G4 | %4
w: Re-|joice, _ _ re-|joice! _ _ The- *|Sa- * * viour|
 !breath!A8 (B3 c) | (d3 c B4) G4 | (A4 G4) F4 | !breath!G8 (B3 c) | d8 e4 | (d3 c B4) (B2 c2) | %10
w: comes, The _|Sa- * * viour|pro- * mised|long: Let _|ev'- ry|heart _ _ pre- *|
 (d4 c4) B4 | !breath!A8 d4 | (e3 d c4) B4 | (A4 G4) F4 | !fermata!G8 ||!f! G4 | (G3 A G4) D4 | %17
w: pare _ a|throne, And|ev- * * 'ry|voice _ a|song.|He|comes _ _ the|
 (G3 A B4) (B3 c) | (d3 c) B4 G4 | !breath!A8 (B3 c) | (d3 c B4) G4 | (A4 G4) F4 | %22
w: pris- * * 'ners _|to _ _ re-|lease, in _|sa- * * tan's|bon- * dage|
 !breath!G8 (B3 c) | d8 e4 | (d3 c B4) (B2 c2) | (d4 c4) B4 | !breath!A8 d4 | (e3 d c4) B4 | %28
w: held; The _|gates of|brass _ _ be- *|fore _ Him|burst, The|i- * * ron|
 (A4 G4) F4 | !fermata!G8 ||!p! G4 | (G3 A G4) D4 | (G3 A B4) (B3 c) | (d3 c) B4 G4 | %34
w: fet- * ters|yield.|He|comes _ _ the|bro- * * ken- *|heart _ _ to|
 !breath!A8 (B3 c) | (d3 c B4) G4 | (A4 G4) F4 | !breath!G8 (B3 c) | d8 e4 | (d3 c B4) (B2 c2) | %40
w: bind, The _|bleed- * * ing|soul _ to|cure, And _|with the|trea- * * sures _|
 (d4 c4) B4 | (A8 d4) | (e3 d c4) B4 | (A4 G4) F4 | !fermata!G8 ||!f! !plus!G4 | (G3 A G4) D4 | %47
w: of _ His|grace To|bless _ _ the|hum- * ble|poor.|Our|glad _ _ ho-|
 (G3 A B4) (B3 c) | (d3 c) B4 G4 | (A8 (B3) c) | (d3 c B4) G4 | (A4 G4) F4 | !breath!G8 (B3 c) | %53
w: san- * * nas, _|Prince _ _ of|Peace, Thy _|well- * * come|shall _ pro-|claim; And _|
 d8 e4 | (d3 c B4) (B2 c2) | (d4 c4) B4 |!<(! (A8!<)! d4) | (e3 d c4) B4 | (A4 G4) F4 | %59
w: heav'n's e-|ter- * * nal _|arch- * es|ring With|Thy _ _ be-|lov- * ed|
 !fermata!G8 |] %60
w: name.|
V:4
!f! G,4 | C,8 D,4 | G,,8 G,4 | G,8 G,,4 | !breath!D,8 G,4 | D,8 G,4 | (C,4 D,4) D,4 | %7
w: Re-|joice, re-|joice! The-|Sa- viour|comes, The|Sa- viour|pro- * mised|
 !breath!G,,8 G,4 | G,8 (E,2 F,2) | G,8 (G,2 A,2) | (B,4 A,4) G,4 | !breath!D,8 D,4 | C,8 G,4 | %13
w: long: Let|ev'- ry _|heart pre- *|pare _ a|throne, And|ev- 'ry|
 (C,4 D,4) D,4 | !fermata!G,,8 ||!f! G,4 | C,8 D,4 | G,,8 G,4 | G,8 G,,4 | !breath!D,8 G,4 | %20
w: voice _ a|song.|He|comes the|pris- 'ners|to re-|lease, in|
 D,8 G,4 | (C,4 D,4) D,4 | !breath!G,,8 G,4 | G,8 (E,2 F,2) | G,8 (G,2 A,2) | (B,4 A,4) G,4 | %26
w: sa- tan's|bon- * dage|held; The|gates of _|brass be- *|fore _ Him|
 !breath!D,8 D,4 | C,8 G,4 | (C,4 D,4) D,4 | !fermata!G,,8 ||!p! G,4 | C,8 D,4 | G,,8 G,4 | %33
w: burst, The|i- ron|fet- * ters|yield.|He|comes the|bro- ken-|
 G,8 G,,4 | !breath!D,8 G,4 | D,8 G,4 | (C,4 D,4) D,4 | !breath!G,,8 G,4 | G,8 (E,2 F,2) | %39
w: heart to|bind, The|bleed- ing|soul _ to|cure, And|with the _|
 G,8 (G,2 A,2) | (B,4 A,4) G,4 | (D,8 D,4) | C,8 G,4 | (C,4 D,4) D,4 | !fermata!G,,8 || %45
w: trea- sures _|of _ His|grace To|bless the|hum- * ble|poor.|
!f! !plus!G,4 | C,8 D,4 | G,,8 G,4 | G,8 G,,4 | (D,8 G,4) | D,8 G,4 | (C,4 D,4) D,4 | %52
w: Our|glad ho-|san- nas,|Prince of|Peace, Thy|well- come|shall _ pro-|
 !breath!G,,8 G,4 | G,8 (E,2 F,2) | G,8 (G,2 A,2) | (B,4 A,4) G,4 |!<(! (D,8!<)! D,4) | C,8 G,4 | %58
w: claim; And|heav'n's e- *|ter- nal _|arch- * es|ring With|Thy be-|
 (C,4 D,4) D,4 | !fermata!G,,8 |] %60
w: lov- * ed|name.|

